X: 3
T: First song
N: Derived from ojibwa03.krn
C: Chippewa Songs ~ 1910
O: Red Wing, Minnesota, U.S.A
N: Chippewa Music by Frances Densmore, 1910
Z: transcribed to **kern format by Paul von Hippel and Daniel T. Shanahan
L: 1/8
M: 2/4
Q: 1/4=108
K: F clef=bass
%%linebreak <none>
C C [I:setbarnb 1]| 
C2C3/ A,/ | 
C3C | 
[M:3/4]C2>C2C2 | 
C2>C2C2 | 
A,2>A,2 A, F, | 
F,2>F,2F,2- | 
[M:2/4]F,2C C | 
[M:3/4]A,2A,> F, A,3/ A,/ | 
A,2>A,2A,2 | 
[M:2/4]A,4 | 
[M:3/4]A,2A,2A, F, [I:setbarnb 12]| 
F,2>F,2F,2- | 
[M:2/4]F,2A, A, | 
F,2F,3/ D,/ | 
F,3F, | 
F,4 | 
F,3F, | 
D,2D,2 | 
[M:3/4]C,2>C,2C,2- | 
[M:2/4]C,2C, C, | 
C,2C, A,, | 
C,2C,2 | 
C,3C, | 
A,,2A,,2 | 
F,,3F,, | 
F,,2C C | 
C2C3/ A,/ | 
C3C | 
[M:3/4]C2>C2C2 | 
C2>C2C2 | 
A,2A,2A, F, | 
F,2>F,2F,2- | 
[M:2/4]F,2C C | 
[M:3/4]A,2A,> F, A,3/ A,/ | 
A,2>A,2A,2 | 
[M:2/4]A,4 | 



